X:1
T:Title
%%score [ ( 1 2 ) ( 3 4 ) ]
L:1/8
Q:1/4=120
M:3/4
K:F
V:1 treble nm="Midi_74" snm=" "
V:2 treble 
V:3 bass nm="Midi_74"
V:4 bass 
V:1
"^vv. 1, 2 anon\nv. 3 John Thomas McFarland?" C2 | F2 F2 GA | F2"^Away in a manger" F2 AB | %3
w: A-|way in a *|man- ger, no *|
w: |||
w: Be|near me, Lord *|Je- sus; I *|
 c2 c2 d2 | B4"^William J. Kirkpatrick,\narr. Andrew Sims" GA | B2 B2 c2 |[M:3/4] A2 A2 FA | %7
w: crib for a|bed, the *|lit- tle Lord|Je- sus laid *|
w: ||||
w: ask thee to|stay close *|by me for-|ev- er, and *|
 G2 D2 F2 | E4 C2 | F2 F2 GA | F2 F2 AB | c2 c2 d2 | B4 GA | B2 B2 c2 | A2 A2 FA | G2 D2 E2 | F4 |] %17
w: down his sweet|head. The|stars in the *|bright sky looked *|down where he|lay, the *|lit- tle Lord|Je- sus, a *|sleep on the|hay.|
w: ||||||||||
w: love me, I|pray; bless|all the dear *|child- ren in *|thy ten- der|care, and *|fit us for|hea- ven, to *|live with thee|there.|
V:2
 C2 | C2 C2 D2 | C2 C2 F2 | E2 E2 F2 | G4 G2 | G2 G2 E2 |[M:3/4] F2 C2 D2 | D2 D2 =B,2 | C4 C2 | %9
w: |||||||||
w: The|cat- tle are|low- ing, the|ba- by a-|wakes, but|lit- tle Lord|Je- sus, no|cry- ing he|makes; I|
 C2 C2 D2 | C2 C2 F2 | E2 E2 E2 | G4 G2 | G2 G2 E2 | F2 C2 D2 | D2 B,2 B,2 | A,4 |] %17
w: ||||||||
w: love thee, Lord|Je- sus, look|down from the|sky and|stay by my|side un- til|morn- ing is|nigh.|
V:3
 C2 | A,2 A,2 B,2 | A,2 A,2 C2 | C2 C2 C2 | D4 D2 | C2 C2 C2 |[M:3/4] C2 A,2 A,F, | G,2 G,2 G,2 | %8
 G,4 B,2 | A,2 A,2 B,2 | A,2 A,2 C2 |"^This edition  Andrew Sims 2014" C2 C2 C2 | D4 D2 | %13
 C2 C2 C2 | C2 A,2 A,F, | G,2 G,2 G,2 | F,4 |] %17
V:4
 A,G, | F,2 F,2 F,2 | F,2 F,2 F,G, | A,2 A,2 A,2 | G,4 F,2 | E,2 E,2 C,2 |[M:3/4] F,2 F,2 D,2 | %7
 =B,,2 B,,2 G,,2 | C,4 E,2 | F,2 F,2 F,2 | F,2 F,2 F,G, | A,2 A,2 A,2 | G,4 F,2 | E,2 E,2 C,2 | %14
 F,2 F,E, D,C, | B,,2 B,,2 C,2 | F,,4 |] %17

